icons/_assets/table.svg

<svg width="100" height="100" xmlns="http://www.w3.org/2000/svg"><path d="M90.2912465,8 L90.2912465,86.1766841 L58.3787011,87.8225074 L58.378,87.772 L8,90.2912465 L8,12.1145623 L39.9125454,10.468739 L39.912,10.519 L90.2912465,8 Z M33.831,66.78 L14.081,67.768 L14.0810811,83.8882432 L33.8312162,82.8702703 L33.831,66.78 Z M58.378,65.553 L39.912,66.476 L39.912,82.605 L58.378,81.682 L58.378,65.553 Z M84.209,64.262 L64.459,65.249 L64.459,81.378 L84.2093243,80.3916216 L84.209,64.262 Z M33.831,42.093 L14.081,43.081 L14.081,61.68 L33.831,60.692 L33.831,42.093 Z M58.378,40.866 L39.912,41.789 L39.912,60.388 L58.378,59.465 L58.378,40.866 Z M84.209,39.574 L64.459,40.562 L64.459,59.161 L84.2093243,58.1737838 L84.209,39.574 Z M33.831,16.91 L14.081,17.898 L14.081,36.992 L33.831,36.004 L33.831,16.91 Z M58.378,15.683 L39.912,16.606 L39.912,35.7 L58.378,34.777 L58.378,15.683 Z M84.2093243,14.4021622 L64.4591892,15.4201351 L64.459,34.473 L84.2093243,33.4858108 L84.2093243,14.4021622 Z" fill="currentColor" fill-rule="evenodd"/></svg>

<svg width="100" height="100" xmlns="http://www.w3.org/2000/svg"><path d="M90.291 8v78.177L58.38 87.823l-.001-.051L8 90.292V12.114l31.913-1.646-.001.05L90.292 8zm-56.46 58.78-19.75.988v16.12l19.75-1.018V66.78zm24.547-1.227-18.466.923v16.129l18.466-.923V65.553zm25.831-1.291-19.75.987v16.129l19.75-.986v-16.13zM33.831 42.093l-19.75.988V61.68l19.75-.988V42.093zm24.547-1.227-18.466.923v18.599l18.466-.923V40.866zm25.831-1.292-19.75.988v18.599l19.75-.987v-18.6zM33.831 16.91l-19.75.988v19.094l19.75-.988V16.91zm24.547-1.227-18.466.923V35.7l18.466-.923V15.683zm25.831-1.28L64.46 15.42v19.053l19.75-.987V14.402z" fill="currentColor" fill-rule="evenodd"/></svg>
